;FLAVOR:Marlin
;TIME:2501
;Filament used: 1.6674m
;Layer height: 0.2
;MINX:93.524
;MINY:77.283
;MINZ:0.2
;MAXX:142.606
;MAXY:157.709
;MAXZ:24.6
;TARGET_MACHINE.NAME:Creality Ender-3
;Generated with Cura_SteamEngine 5.11.0
M140 S50
M105
M190 S50
M104 S200
M105
M109 S200
; Ender 3 Custom Start G-code
G92 E0 ; Reset Extruder
G28 ; Home all axes
G1 Z2.0 F3000 ; Move Z Axis up little to prevent scratching of Heat Bed
G1 X0.1 Y20 Z0.3 F5000.0 ; Move to start position
G1 X0.1 Y200.0 Z0.3 F1500.0 E15 ; Draw the first line
G1 X0.4 Y200.0 Z0.3 F5000.0 ; Move to side a little
G1 X0.4 Y20 Z0.3 F1500.0 E30 ; Draw the second line
G92 E0 ; Reset Extruder
G1 Z2.0 F3000 ; Move Z Axis up little to prevent scratching of Heat Bed
G1 X5 Y20 Z0.3 F5000.0 ; Move over to prevent blob squish
M82 ;absolute extrusion mode
G92 E0
G92 E0
G1 F2700 E-5
;LAYER_COUNT:123
;LAYER:0
M107
G0 F6000 X99.887 Y86.102 Z0.2
;TYPE:SKIRT
G1 F2700 E0
G1 F1200 X100.3 Y85.65 E0.02036
G1 X100.632 Y85.31 E0.03617
G1 X101.743 Y84.24 E0.08747
G1 X102.087 Y83.93 E0.10287
G1 X102.624 Y83.478 E0.12622
G1 X103.246 Y82.985 E0.15262
G1 X104.194 Y82.272 E0.19207
G1 X104.765 Y81.888 E0.21496
G1 X105.327 Y81.53 E0.23712
G1 X106.074 Y81.073 E0.26625
G1 X106.611 Y80.767 E0.2868
G1 X107.05 Y80.534 E0.30333
G1 X107.758 Y80.181 E0.32965
G1 X108.446 Y79.853 E0.355
G1 X108.985 Y79.613 E0.37462
G1 X109.479 Y79.414 E0.39233
G1 X110.931 Y78.885 E0.44373
G1 X111.476 Y78.708 E0.46279
G1 X111.964 Y78.567 E0.47969
G1 X112.828 Y78.343 E0.50937
G1 X114.171 Y78.011 E0.55539
G1 X115.372 Y77.731 E0.5964
G1 X116.241 Y77.542 E0.62598
G1 X117.209 Y77.379 E0.65863
G1 X118.384 Y77.296 E0.69781
G1 X119.172 Y77.284 E0.72402
G1 X130.91 Y77.283 E1.11443
G1 X131.79 Y77.296 E1.1437
G1 X132.762 Y77.355 E1.17609
G1 X133.725 Y77.501 E1.20848
G1 X134.672 Y77.732 E1.24091
G1 X135.56 Y78.032 E1.27208
G1 X136.452 Y78.422 E1.30446
G1 X137.335 Y78.909 E1.338
G1 X138.086 Y79.411 E1.36804
G1 X138.901 Y80.069 E1.40288
G1 X139.599 Y80.747 E1.43525
G1 X140.235 Y81.484 E1.46763
G1 X140.805 Y82.274 E1.50003
G1 X141.267 Y83.05 E1.53007
G1 X141.721 Y83.992 E1.56485
G1 X142.05 Y84.87 E1.59603
G1 X142.319 Y85.842 E1.62957
G1 X142.496 Y86.808 E1.66224
G1 X142.591 Y87.924 E1.69949
G1 X142.606 Y88.598 E1.72191
G1 X142.605 Y133.132 E3.20312
G1 X142.593 Y133.859 E3.2273
G1 X142.546 Y134.699 E3.25529
G1 X142.341 Y136.028 E3.30001
G1 X142.113 Y136.906 E3.33018
G1 X141.91 Y137.572 E3.35334
G1 X141.53 Y138.712 E3.39331
G1 X141.32 Y139.282 E3.41351
G1 X141.007 Y140.033 E3.44057
G1 X140.368 Y141.458 E3.49252
G1 X140.307 Y141.556 E3.49636
G1 X140.081 Y142.042 E3.51418
G1 X139.876 Y142.425 E3.52863
G1 X139.238 Y143.544 E3.57147
G1 X138.882 Y144.143 E3.59465
G1 X138.552 Y144.668 E3.61527
G1 X138.29 Y145.052 E3.63073
G1 X137.649 Y145.948 E3.66738
G1 X136.944 Y146.889 E3.70648
G1 X136.49 Y147.435 E3.7301
G1 X135.635 Y148.393 E3.77281
G1 X135.11 Y148.962 E3.79856
G1 X134.689 Y149.394 E3.81862
G1 X134.358 Y149.71 E3.83384
G1 X133.485 Y150.503 E3.87307
G1 X132.929 Y150.992 E3.8977
G1 X132.826 Y151.061 E3.90182
G1 X132.471 Y151.375 E3.91758
G1 X132.07 Y151.686 E3.93446
G1 X131.089 Y152.404 E3.9749
G1 X130.484 Y152.833 E3.99956
G1 X130.003 Y153.155 E4.01882
G1 X129.59 Y153.412 E4.03499
G1 X128.533 Y154.027 E4.07567
G1 X127.872 Y154.395 E4.10083
G1 X127.35 Y154.672 E4.12049
G1 X126.881 Y154.899 E4.13782
G1 X125.93 Y155.328 E4.17252
G1 X125.143 Y155.665 E4.20099
G1 X124.567 Y155.898 E4.22166
G1 X124.096 Y156.066 E4.23829
G1 X123.112 Y156.391 E4.27276
G1 X120.983 Y157.057 E4.34695
G1 X120.471 Y157.201 E4.36464
G1 X119.913 Y157.339 E4.38376
G1 X119.22 Y157.479 E4.40727
G1 X118.523 Y157.592 E4.43076
G1 X117.566 Y157.69 E4.46275
G1 X116.88 Y157.709 E4.48558
G1 X115.978 Y157.669 E4.51561
G1 X115.311 Y157.592 E4.53794
G1 X114.667 Y157.487 E4.55964
G1 X114.141 Y157.39 E4.57743
G1 X113.2 Y157.165 E4.60961
G1 X112.314 Y156.885 E4.64052
G1 X111.894 Y156.729 E4.65542
G1 X111.004 Y156.342 E4.6877
G1 X110.356 Y156.012 E4.71189
G1 X109.897 Y155.764 E4.72924
G1 X109.125 Y155.278 E4.75958
G1 X108.723 Y154.988 E4.77607
G1 X108.163 Y154.552 E4.79967
G1 X107.45 Y153.931 E4.83112
G1 X106.957 Y153.447 E4.8541
G1 X106.715 Y153.194 E4.86574
G1 X106.212 Y152.63 E4.89088
G1 X105.921 Y152.265 E4.9064
G1 X105.656 Y151.906 E4.92124
G1 X105.254 Y151.321 E4.94485
G1 X104.927 Y150.796 E4.96542
G1 X104.619 Y150.241 E4.98654
G1 X104.242 Y149.45 E5.01568
G1 X104.015 Y148.904 E5.03535
G1 X103.833 Y148.383 E5.0537
G1 X103.775 Y148.254 E5.05841
G1 X103.58 Y147.636 E5.07996
G1 X103.419 Y147.036 E5.10062
G1 X103.313 Y146.559 E5.11687
G1 X103.208 Y145.952 E5.13736
G1 X103.112 Y145.236 E5.16139
G1 X103.055 Y144.61 E5.1823
G1 X102.99 Y143.073 E5.23346
G1 X102.829 Y140.491 E5.31951
G1 X102.605 Y138.011 E5.40233
G1 X102.303 Y135.487 E5.48688
G1 X101.932 Y132.979 E5.5712
G1 X101.499 Y130.531 E5.65389
G1 X100.988 Y128.05 E5.73814
G1 X100.41 Y125.602 E5.8218
G1 X99.768 Y123.181 E5.9051
G1 X99.055 Y120.78 E5.98841
G1 X98.263 Y118.362 E6.07303
G1 X97.405 Y115.97 E6.15755
G1 X96.519 Y113.708 E6.23835
G1 X95.896 Y112.265 E6.29063
G1 X95.737 Y111.846 E6.30554
G1 X95.432 Y111.133 E6.33133
G1 X95.024 Y110.121 E6.36762
G1 X94.816 Y109.556 E6.38765
G1 X94.502 Y108.572 E6.422
G1 X94.275 Y107.772 E6.44966
G1 X94.154 Y107.29 E6.46619
G1 X94.002 Y106.585 E6.49018
G1 X93.821 Y105.611 E6.52313
G1 X93.73 Y105.009 E6.54338
G1 X93.636 Y104.176 E6.57126
G1 X93.548 Y103.022 E6.60975
G1 X93.524 Y102.041 E6.64239
G1 X93.543 Y100.952 E6.67861
G1 X93.573 Y100.351 E6.69863
G1 X93.635 Y99.645 E6.7222
G1 X93.761 Y98.599 E6.75724
G1 X93.921 Y97.65 E6.78925
G1 X94.06 Y97.082 E6.8087
G1 X94.356 Y96.013 E6.84559
G1 X94.582 Y95.273 E6.87133
G1 X94.772 Y94.701 E6.89138
G1 X94.95 Y94.227 E6.90822
G1 X95.527 Y92.819 E6.95883
G1 X95.788 Y92.244 E6.97983
G1 X96.004 Y91.81 E6.99595
G1 X96.34 Y91.169 E7.02002
G1 X96.897 Y90.164 E7.05824
G1 X97.346 Y89.443 E7.08649
G1 X97.734 Y88.863 E7.1097
G1 X98.374 Y87.945 E7.14692
G1 X98.669 Y87.556 E7.16316
G1 X99.091 Y87.038 E7.18538
G1 X99.887 Y86.102 E7.22625
G0 F6000 X100.183 Y86.372
G1 F1200 X100.587 Y85.929 E7.24619
G1 X100.909 Y85.598 E7.26155
G1 X102.011 Y84.537 E7.31243
G1 X102.344 Y84.236 E7.32736
G1 X102.872 Y83.792 E7.3503
G1 X103.487 Y83.305 E7.37639
G1 X104.418 Y82.604 E7.41515
G1 X104.98 Y82.225 E7.4377
G1 X105.536 Y81.871 E7.45962
G1 X106.272 Y81.42 E7.48833
G1 X106.798 Y81.12 E7.50847
G1 X107.228 Y80.892 E7.52466
G1 X107.93 Y80.542 E7.55075
G1 X108.609 Y80.218 E7.57577
G1 X109.134 Y79.984 E7.59489
G1 X109.616 Y79.79 E7.61217
G1 X111.055 Y79.265 E7.66312
G1 X111.587 Y79.092 E7.68173
G1 X112.065 Y78.954 E7.69827
G1 X112.924 Y78.731 E7.72779
G1 X114.262 Y78.401 E7.77363
G1 X115.457 Y78.122 E7.81444
G1 X116.308 Y77.936 E7.84341
G1 X117.237 Y77.778 E7.87476
G1 X118.39 Y77.696 E7.9132
G1 X119.172 Y77.684 E7.93921
G1 X130.904 Y77.683 E8.32942
G1 X131.766 Y77.695 E8.3581
G1 X132.703 Y77.751 E8.38932
G1 X133.631 Y77.89 E8.42053
G1 X134.544 Y78.111 E8.45177
G1 X135.4 Y78.399 E8.48181
G1 X136.292 Y78.789 E8.51419
G1 X137.113 Y79.242 E8.54538
G1 X137.864 Y79.744 E8.57542
G1 X138.623 Y80.356 E8.60785
G1 X139.297 Y81.009 E8.63906
G1 X139.911 Y81.718 E8.67026
G1 X140.461 Y82.479 E8.70149
G1 X140.923 Y83.255 E8.73152
G1 X141.346 Y84.132 E8.76391
G1 X141.675 Y85.01 E8.79509
G1 X141.926 Y85.915 E8.82633
G1 X142.097 Y86.842 E8.85768
G1 X142.192 Y87.958 E8.89494
G1 X142.206 Y88.598 E8.91623
G1 X142.205 Y133.126 E10.39723
G1 X142.194 Y133.838 E10.42092
G1 X142.151 Y134.639 E10.4476
G1 X141.954 Y135.928 E10.49097
G1 X141.731 Y136.789 E10.52055
G1 X141.53 Y137.446 E10.5434
G1 X141.155 Y138.574 E10.58294
G1 X140.951 Y139.128 E10.60257
G1 X140.642 Y139.869 E10.62928
G1 X140.003 Y141.294 E10.68122
G1 X139.962 Y141.349 E10.6835
G1 X139.728 Y141.853 E10.70198
G1 X139.528 Y142.227 E10.71609
G1 X138.894 Y143.34 E10.75869
G1 X138.544 Y143.93 E10.78151
G1 X138.221 Y144.443 E10.80167
G1 X137.965 Y144.819 E10.8168
G1 X137.329 Y145.708 E10.85316
G1 X136.637 Y146.633 E10.89158
G1 X136.191 Y147.169 E10.91477
G1 X135.341 Y148.122 E10.95724
G1 X134.823 Y148.683 E10.98264
G1 X134.412 Y149.105 E11.00223
G1 X134.089 Y149.414 E11.0171
G1 X133.221 Y150.203 E11.05611
G1 X132.665 Y150.692 E11.08074
G1 X132.595 Y150.73 E11.08339
G1 X132.225 Y151.059 E11.09986
G1 X131.834 Y151.363 E11.11633
G1 X130.857 Y152.078 E11.1566
G1 X130.261 Y152.501 E11.18091
G1 X129.792 Y152.815 E11.19968
G1 X129.389 Y153.066 E11.21547
G1 X128.338 Y153.678 E11.25592
G1 X127.685 Y154.042 E11.28079
G1 X127.176 Y154.312 E11.29995
G1 X126.717 Y154.534 E11.31691
G1 X125.772 Y154.96 E11.35139
G1 X124.993 Y155.294 E11.37958
G1 X124.432 Y155.521 E11.39971
G1 X123.97 Y155.686 E11.41602
G1 X122.993 Y156.009 E11.45025
G1 X120.874 Y156.672 E11.52409
G1 X120.375 Y156.813 E11.54134
G1 X119.834 Y156.947 E11.55988
G1 X119.155 Y157.084 E11.58292
G1 X118.482 Y157.194 E11.6056
G1 X117.554 Y157.29 E11.63663
G1 X116.898 Y157.309 E11.65846
G1 X115.996 Y157.269 E11.68849
G1 X115.375 Y157.197 E11.70928
G1 X114.739 Y157.094 E11.73071
G1 X114.234 Y157.001 E11.74779
G1 X113.32 Y156.783 E11.77904
G1 X112.453 Y156.51 E11.80927
G1 X112.053 Y156.362 E11.82346
G1 X111.185 Y155.985 E11.85493
G1 X110.545 Y155.66 E11.87881
G1 X110.11 Y155.426 E11.89524
G1 X109.359 Y154.953 E11.92476
G1 X108.969 Y154.672 E11.94074
G1 X108.409 Y154.236 E11.96435
G1 X107.73 Y153.646 E11.99427
G1 X107.246 Y153.171 E12.01682
G1 X107.013 Y152.927 E12.02804
G1 X106.525 Y152.381 E12.0524
G1 X106.243 Y152.027 E12.06745
G1 X105.986 Y151.679 E12.08184
G1 X105.584 Y151.094 E12.10545
G1 X105.277 Y150.602 E12.12474
G1 X104.969 Y150.047 E12.14585
G1 X104.611 Y149.297 E12.17349
G1 X104.393 Y148.772 E12.1924
G1 X104.206 Y148.235 E12.21131
G1 X104.156 Y148.134 E12.21506
G1 X103.966 Y147.532 E12.23605
G1 X103.809 Y146.949 E12.25614
G1 X103.707 Y146.49 E12.27178
G1 X103.604 Y145.899 E12.29173
G1 X103.51 Y145.2 E12.31519
G1 X103.455 Y144.593 E12.33546
G1 X103.389 Y143.056 E12.38663
G1 X103.228 Y140.466 E12.47294
G1 X103.003 Y137.975 E12.55612
G1 X102.699 Y135.428 E12.64144
G1 X102.328 Y132.92 E12.72576
G1 X101.893 Y130.461 E12.80882
G1 X101.38 Y127.969 E12.89344
G1 X100.797 Y125.499 E12.97785
G1 X100.154 Y123.078 E13.06117
G1 X99.435 Y120.655 E13.14523
G1 X98.643 Y118.237 E13.22986
G1 X97.781 Y115.835 E13.31474
G1 X96.891 Y113.562 E13.39592
G1 X96.27 Y112.123 E13.44805
G1 X96.111 Y111.704 E13.46296
G1 X95.803 Y110.983 E13.48904
G1 X95.399 Y109.983 E13.52491
G1 X95.197 Y109.434 E13.54436
G1 X94.887 Y108.462 E13.5783
G1 X94.663 Y107.675 E13.60551
G1 X94.545 Y107.205 E13.62163
G1 X94.395 Y106.512 E13.64521
G1 X94.217 Y105.551 E13.67772
G1 X94.126 Y104.949 E13.69797
G1 X94.035 Y104.145 E13.72488
G1 X93.948 Y103.012 E13.76268
G1 X93.924 Y102.048 E13.79475
G1 X93.943 Y100.972 E13.83054
G1 X93.973 Y100.371 E13.85056
G1 X94.032 Y99.693 E13.87319
G1 X94.155 Y98.665 E13.90763
G1 X94.31 Y97.745 E13.93866
G1 X94.446 Y97.189 E13.9577
G1 X94.739 Y96.129 E13.99427
G1 X94.961 Y95.399 E14.01965
G1 X95.147 Y94.841 E14.03921
G1 X95.32 Y94.379 E14.05562
G1 X95.891 Y92.984 E14.10576
G1 X96.146 Y92.422 E14.12628
G1 X96.358 Y91.996 E14.14211
G1 X96.69 Y91.363 E14.16588
G1 X97.237 Y90.375 E14.20344
G1 X97.679 Y89.665 E14.23126
G1 X98.062 Y89.092 E14.25418
G1 X98.693 Y88.187 E14.29088
G1 X98.988 Y87.798 E14.30712
G1 X99.395 Y87.297 E14.32859
G1 X100.183 Y86.372 E14.369
G0 F6000 X100.479 Y86.641
G1 F1200 X100.873 Y86.208 E14.38847
G1 X101.187 Y85.886 E14.40343
G1 X102.28 Y84.833 E14.45391
G1 X102.601 Y84.542 E14.46832
G1 X103.12 Y84.106 E14.49087
G1 X103.728 Y83.625 E14.51665
G1 X104.659 Y82.924 E14.55541
G1 X105.195 Y82.562 E14.57693
G1 X105.745 Y82.212 E14.59861
G1 X106.471 Y81.767 E14.62693
G1 X106.985 Y81.473 E14.64663
G1 X107.406 Y81.25 E14.66247
G1 X108.102 Y80.903 E14.68834
G1 X108.772 Y80.583 E14.71303
G1 X109.284 Y80.355 E14.73167
G1 X109.753 Y80.166 E14.74849
G1 X111.179 Y79.645 E14.79899
G1 X111.698 Y79.476 E14.81714
G1 X112.166 Y79.341 E14.83334
G1 X113.02 Y79.119 E14.86269
G1 X114.353 Y78.791 E14.90835
G1 X115.543 Y78.513 E14.94899
G1 X116.376 Y78.33 E14.97736
G1 X117.266 Y78.177 E15.0074
G1 X118.396 Y78.096 E15.04508
G1 X119.172 Y78.084 E15.07089
G1 X130.899 Y78.083 E15.46093
G1 X131.743 Y78.094 E15.489
G1 X132.645 Y78.147 E15.51906
G1 X133.538 Y78.279 E15.54908
G1 X134.416 Y78.49 E15.57912
G1 X135.272 Y78.778 E15.60915
G1 X136.099 Y79.14 E15.63918
G1 X136.891 Y79.575 E15.66923
G1 X137.642 Y80.077 E15.69928
G1 X138.345 Y80.644 E15.72932
G1 X138.995 Y81.271 E15.75936
G1 X139.587 Y81.953 E15.78939
G1 X140.117 Y82.684 E15.81942
G1 X140.579 Y83.46 E15.84946
G1 X140.972 Y84.273 E15.8795
G1 X141.29 Y85.118 E15.90953
G1 X141.533 Y85.988 E15.93957
G1 X141.698 Y86.876 E15.96961
G1 X141.793 Y87.992 E16.00686
G1 X141.806 Y88.598 E16.02702
G1 X141.805 Y133.12 E17.50783
G1 X141.795 Y133.818 E17.53105
G1 X141.756 Y134.579 E17.55639
G1 X141.567 Y135.828 E17.59841
G1 X141.348 Y136.672 E17.62741
G1 X141.15 Y137.32 E17.64994
G1 X140.78 Y138.436 E17.68905
G1 X140.582 Y138.974 E17.70812
G1 X140.277 Y139.705 E17.73446
G1 X139.638 Y141.13 E17.7864
G1 X139.625 Y141.124 E17.78688
G1 X139.365 Y141.685 E17.80745
G1 X139.18 Y142.029 E17.82044
G1 X138.55 Y143.136 E17.8628
G1 X138.206 Y143.717 E17.88526
G1 X137.89 Y144.218 E17.90496
G1 X137.64 Y144.586 E17.91976
G1 X137.009 Y145.468 E17.95583
G1 X136.329 Y146.377 E17.99358
G1 X135.892 Y146.903 E18.01633
G1 X135.047 Y147.851 E18.05857
G1 X134.537 Y148.404 E18.08359
G1 X134.135 Y148.816 E18.10273
G1 X133.82 Y149.118 E18.11725
G1 X132.957 Y149.903 E18.15605
G1 X132.401 Y150.392 E18.18068
G1 X132.389 Y150.378 E18.18129
G1 X131.959 Y150.76 E18.20042
G1 X131.598 Y151.04 E18.21561
G1 X130.626 Y151.752 E18.25569
G1 X130.038 Y152.169 E18.27966
G1 X129.581 Y152.475 E18.29796
G1 X129.187 Y152.72 E18.31339
G1 X128.143 Y153.329 E18.35359
G1 X127.497 Y153.689 E18.37818
G1 X127.002 Y153.952 E18.39683
G1 X126.553 Y154.169 E18.41341
G1 X125.614 Y154.592 E18.44767
G1 X124.843 Y154.923 E18.47558
G1 X124.297 Y155.144 E18.49517
G1 X123.844 Y155.306 E18.51117
G1 X122.874 Y155.627 E18.54515
G1 X120.765 Y156.287 E18.61865
G1 X120.279 Y156.425 E18.63545
G1 X119.755 Y156.555 E18.65341
G1 X119.09 Y156.689 E18.67597
G1 X118.44 Y156.796 E18.69788
G1 X117.542 Y156.89 E18.72791
G1 X116.916 Y156.909 E18.74875
G1 X116.014 Y156.869 E18.77878
G1 X115.439 Y156.802 E18.79803
G1 X114.811 Y156.701 E18.81919
G1 X114.327 Y156.612 E18.83555
G1 X113.44 Y156.401 E18.86588
G1 X112.573 Y156.128 E18.89611
G1 X112.212 Y155.995 E18.90891
G1 X111.366 Y155.628 E18.93958
G1 X110.734 Y155.307 E18.96315
G1 X110.323 Y155.087 E18.97866
G1 X109.593 Y154.628 E19.00734
G1 X109.215 Y154.356 E19.02283
G1 X108.655 Y153.92 E19.04643
G1 X108.01 Y153.36 E19.07484
G1 X107.535 Y152.894 E19.09698
G1 X107.311 Y152.66 E19.10775
G1 X106.838 Y152.131 E19.13135
G1 X106.565 Y151.789 E19.14591
G1 X106.316 Y151.452 E19.15984
G1 X105.914 Y150.867 E19.18345
G1 X105.627 Y150.408 E19.20146
G1 X105.319 Y149.853 E19.22257
G1 X104.98 Y149.143 E19.24874
G1 X104.771 Y148.641 E19.26682
G1 X104.551 Y148.008 E19.28911
G1 X104.537 Y148.013 E19.28961
G1 X104.352 Y147.428 E19.31001
G1 X104.199 Y146.862 E19.32951
G1 X104.101 Y146.421 E19.34454
G1 X104 Y145.846 E19.36396
G1 X103.908 Y145.164 E19.38685
G1 X103.855 Y144.576 E19.40648
G1 X103.788 Y143.039 E19.45765
G1 X103.627 Y140.441 E19.54423
G1 X103.401 Y137.939 E19.62778
G1 X103.095 Y135.369 E19.71386
G1 X102.724 Y132.861 E19.79819
G1 X102.287 Y130.391 E19.88162
G1 X101.772 Y127.888 E19.96661
G1 X101.184 Y125.396 E20.05177
G1 X100.54 Y122.975 E20.13509
G1 X99.818 Y120.541 E20.21954
G1 X99.023 Y118.113 E20.30451
G1 X98.157 Y115.7 E20.38978
G1 X97.258 Y113.403 E20.47182
G1 X96.644 Y111.981 E20.52334
G1 X96.485 Y111.562 E20.53824
G1 X96.174 Y110.833 E20.5646
G1 X95.774 Y109.844 E20.60009
G1 X95.578 Y109.313 E20.61891
G1 X95.272 Y108.352 E20.65246
G1 X95.051 Y107.578 E20.67923
G1 X94.936 Y107.12 E20.69493
G1 X94.788 Y106.439 E20.71811
G1 X94.613 Y105.495 E20.75005
G1 X94.529 Y104.903 E20.76993
G1 X94.523 Y104.904 E20.77014
G1 X94.434 Y104.114 E20.79658
G1 X94.348 Y103.002 E20.83367
G1 X94.324 Y102.055 E20.86518
